X:40
T:Shilf,The JBs.040
T:Sylph,The,aka. JBs.040
R:Jig
S:Jas.Blackshaw MS, 1837, N.Shropshire
Z:Tony Weatherall 2006
M:6/8
L:1/8
Q:3/8=120
A:North Shropshire
K:C
G|GEG ceg|gfe d2f|egf edc|Bdd d2G|!
GEG ceg|gfe d2f|egc dfB|ccc c2:|!
|:g|egcâ€™ câ€™ba|agf e2c|egc egc|Bdd d2 g|!
egcâ€™ câ€™ba|agf e2c|ege fdB|ccc c2:|

